!!!!SEGMENT: pl-sa--19-a-i-19--004_stolle--sinfonia-di-camera-polacchina.krn
!!!cenid: 17xx:665
!!!COM: Stolle
!!!COM-rismid: pe41022824
!!!CDT:
!!!CNT:
!!!OPR: Sinfonia di Camera
!!!OTL: Polacchina
!!!OMV: 004
!!!PDT:
!!!AGN: Secular
!!!SMS-siglum: PL-SA
!!!SMS-shelfmark: 19/A I 19
!!!SMS-shelfwork: 001-004 M
!!!SMS-variant:
!!!SMS-altvar:
!!!NIFC-rismid: 1001076835
!!!URL-scan: http://bc.bdsandomierz.pl/dlibra/publication/1299/edition/1267/content
!!!ONB-nifc: UWAGA: części Sinfonii: Allegro assai, Allegretto, Minuetto (1mo + 2do), Polacchina
!!!key:
**kern	**dynam	**kern	**dynam	**kern	**dynam	**kern	**dynam	**kern	**dynam	**kern	**dynam	**kern	**dynam
*part7	*part7	*part6	*part6	*part5	*part5	*part4	*part4	*part3	*part3	*part2	*part2	*part1	*part1
*	*	*group3	*	*group3	*	*group2	*	*group2	*	*group1	*	*group1	*
*staff7	*	*staff6	*	*staff5	*	*staff4	*	*staff3	*	*staff2	*	*staff1	*
*Iempty	*	*Ivioln	*	*Ivioln	*	*Icor	*	*Icor	*	*Ioboe	*	*Ioboe	*
*I"Baſso	*	*I"Violino secondo.	*	*I"Violino Primo.	*	*I"Corno 2do del C.	*	*I"Corno 1o del C.	*	*I"Oboe Seconda	*	*I"Oboe 1ma	*
*I'B.	*	*I'Vn II	*	*I'Vn I	*	*I'C. 2	*	*I'C. 1	*	*I'Ob. 2	*	*I'Ob. 1	*
*clefF4	*	*clefG2	*	*clefG2	*	*clefG2	*	*clefG2	*	*clefG2	*	*clefG2	*
*k[]	*	*k[]	*	*k[]	*	*k[]	*	*k[]	*	*k[]	*	*k[]	*
*C:	*	*C:	*	*C:	*	*C:	*	*C:	*	*C:	*	*C:	*
*M3/4	*	*M3/4	*	*M3/4	*	*M3/4	*	*M3/4	*	*M3/4	*	*M3/4	*
*>[A,B,B]	*	*>[A,B,B]	*	*>[A,B,B]	*	*>[A,B,B]	*	*>[A,B,B]	*	*>[A,B,B]	*	*>[A,B,B]	*
=1	=1	=1	=1	=1	=1	=1	=1	=1	=1	=1	=1	=1	=1
*>A	*	*>A	*	*>A	*	*>A	*	*>A	*	*>A	*	*>A	*
4c\	.	(16et</LL	.	(16ccT\LL	.	4e/	.	4cc\	.	4cc\	.	4ccT\	.
.	.	16d/	.	16b\	.	.	.	.	.	.	.	.	.
.	.	16e/)	.	16cc\)	.	.	.	.	.	.	.	.	.
.	.	16g/JJ|	.	16ee\JJ|	.	.	.	.	.	.	.	.	.
4G\	.	(16bt</LL	.	(16ddT\LL	.	4g/	.	4dd\	.	4b/	.	4ddT\	.
.	.	16a/	.	16cc\	.	.	.	.	.	.	.	.	.
.	.	16b/)	.	16dd\)	.	.	.	.	.	.	.	.	.
.	.	16dd/JJ|	.	16ff\JJ|	.	.	.	.	.	.	.	.	.
4C/	.	(16ccT\LL	.	(16eet\LL	.	4cc\	.	4ee\	.	4cc\	.	4ee\	.
.	.	16b\	.	16dd\	.	.	.	.	.	.	.	.	.
.	.	16cc\)	.	16ee\)	.	.	.	.	.	.	.	.	.
.	.	16ee\JJ|	.	16gg\JJ|	.	.	.	.	.	.	.	.	.
=2	=2	=2	=2	=2	=2	=2	=2	=2	=2	=2	=2	=2	=2
4F\	.	8cc/L	.	4a/	.	4dd\	.	4dd\	.	4a/	.	4a/	.
.	.	8a/	.	.	.	.	.	.	.	.	.	.	.
4G\	.	8g/	.	4bt</	.	4g/	.	4ff\	.	4bt\	.	(4bt\	.
.	.	8f/J	.	.	.	.	.	.	.	.	.	.	.
4C\	.	4e/	.	4cc\	.	4cc\	.	4ee\	.	4cc\	.	4cc\)	.
=3	=3	=3	=3	=3	=3	=3	=3	=3	=3	=3	=3	=3	=3
4r	.	4r	.	8a/L	.	4r	.	4r	.	4r	.	4r	.
.	.	.	.	16f/L	.	.	.	.	.	.	.	.	.
.	.	.	.	16g/JJ	.	.	.	.	.	.	.	.	.
4r	.	4r	.	8a/L	.	4r	.	4r	.	4r	.	4r	.
.	.	.	.	8a/J	.	.	.	.	.	.	.	.	.
4F\	.	4f/	.	(8b\L	.	8r	.	8r	.	(8b\L	.	(8b\L	.
.	.	.	.	8cc\J)	.	8ff\	.	8aa\	.	8cc\J)	.	8cc\J)	.
=4	=4	=4	=4	=4	=4	=4	=4	=4	=4	=4	=4	=4	=4
4G\	.	(4e/	.	(4g/	.	4ee\	.	4gg\	.	(4e/	.	(4g/	.
4GG/	.	4d/)	.	4f/)	.	4dd\	.	4ff\	.	4d/)	.	4fT</	.
4C/	.	4c/	.	4e/	.	4cc\	.	4ee\	.	4c/	.	4e/)	.
!	!	!	!	!LO:LB:g=original	!	!	!	!	!	!LO:LB:g=original	!	!LO:LB:g=original	!
=5	=5	=5	=5	=5	=5	=5	=5	=5	=5	=5	=5	=5	=5
4r	.	4r	.	8a/L	p	4r	.	4r	.	4r	.	4r	.
.	.	.	.	16f/L	.	.	.	.	.	.	.	.	.
.	.	.	.	16g/JJ	.	.	.	.	.	.	.	.	.
!	!	!	!	!	!	!	!	!	!	!	!	!	!LO:DY:a
4r	.	4r	.	8a/L	.	4r	.	4r	.	4r	.	4r	p
.	.	.	.	8a/J	.	.	.	.	.	.	.	.	.
!	!LO:DY:a:t=P&colon;	!	!LO:DY:a	!	!	!	!	!	!	!	!LO:DY:a	!	!
4F\	p	4f/	p	(8b\L	.	8r	.	8r	.	(8b\L	p	(8b\L	.
!	!	!	!	!	!	!	!LO:DY:a	!	!	!	!	!	!
.	.	.	.	8cc\J)	.	8ff\	p	8aa\	p	8cc\J)	.	8cc\J)	.
!	!	!LO:LB:g=original	!	!	!	!	!	!	!	!	!	!	!
=6	=6	=6	=6	=6	=6	=6	=6	=6	=6	=6	=6	=6	=6
4G\	.	(8e/L	.	(8g/L	.	(8ee\L	.	(8gg\L	.	(8e/L	.	(8g/L	.
.	.	8d/)	.	8f/)	.	8dd\)	.	8ff\)	.	8d/)	.	8f/)	.
4GG/	.	(8d/	.	(8f/	.	(8dd\	.	(8ff\	.	(8d/	.	(8f/	.
.	.	8c/J)	.	8e/J)	.	8cc\J)	.	8ee\J)	.	8c/J)	.	8e/J)	.
4C/	.	4c/	.	4e/	.	4cc\	.	4ee\	.	4c/	.	4e/	.
!	!	!	!	!	!	!LO:LB:g=original	!	!	!	!	!	!	!
=7	=7	=7	=7	=7	=7	=7	=7	=7	=7	=7	=7	=7	=7
*2\right	*	*	*	*	*	*2\right	*	*2\right	*	*	*	*2\right	*
!	!LO:DY:a:t=for	!	!LO:DY:a	!	!	!	!	!	!	!	!LO:DY:a	!	!
2F\	f	4c/	f	16aa\LL	f	2ff\	f	2aa\	f	4c/	f	2aa\	f
.	.	.	.	16gg\	.	.	.	.	.	.	.	.	.
.	.	.	.	16ff\	.	.	.	.	.	.	.	.	.
.	.	.	.	16ee\JJ	.	.	.	.	.	.	.	.	.
.	.	4d/	.	16dd\LL	.	.	.	.	.	4d/	.	.	.
.	.	.	.	16cc\	.	.	.	.	.	.	.	.	.
.	.	.	.	16b\	.	.	.	.	.	.	.	.	.
.	.	.	.	16a\JJ	.	.	.	.	.	.	.	.	.
!	!	!	!	!LO:TX:t=P:problem=mixed beam	!	!	!	!	!	!	!	!	!
4G\	.	8b\L	.	8g/L	.	8ee\L	.	8gg\L	.	8b\L	.	8gg\L	.
.	.	8dd\J	.	8ff\J	.	8dd\J	.	8ff\J	.	8dd\J	.	8ff\J	.
=8	=8	=8	=8	=8	=8	=8	=8	=8	=8	=8	=8	=8	=8
8c\L	.	(16g/LL	.	16ee\LL	.	8cc\L	.	8ee\L	.	(16g/LL	.	16ee\LL	.
.	.	16f/	.	(16dd\	.	.	.	.	.	16f/	.	(16dd\	.
8G\J	.	16e/)	.	16cc\	.	8g\J	.	8dd\J	.	16e/)	.	16cc\)	.
.	.	16d/JJ	.	16b\JJ)	.	.	.	.	.	16d/JJ	.	16b\JJ	.
.	.	.	.	.	.	.	.	.	.	8qqd\	.	8qqb/	.
2C\	.	2e/	.	4cc\	.	2e/	.	2cc\	.	2e/	.	2cc\	.
.	.	.	.	4c/	.	.	.	.	.	.	.	.	.
!LO:LB:g=original	!	!	!	!LO:LB:g=original	!	!	!	!LO:LB:g=original	!	!LO:LB:g=original	!	!LO:LB:g=original	!
!	!	!	!	!	!	!	!	!	!	!LO:SIC:custos cc po kresce taktowej:v	!	!LO:SIC:custos ee po kresce taktowej:v	!
=9:|!|:	=9:|!|:	=9:|!|:	=9:|!|:	=9:|!|:	=9:|!|:	=9:|!|:	=9:|!|:	=9:|!|:	=9:|!|:	=9:|!|:	=9:|!|:	=9:|!|:	=9:|!|:
*>B	*	*>B	*	*>B	*	*>B	*	*>B	*	*>B	*	*>B	*
4C/	.	4cc\	.	16ee\LL	.	2cc\	.	2ee\	.	4cc\	.	16ee\LL	.
.	.	.	.	16dd\	.	.	.	.	.	.	.	16dd\	.
.	.	.	.	16cc\	.	.	.	.	.	.	.	16cc\	.
.	.	.	.	16b\JJ	.	.	.	.	.	.	.	16b\JJ	.
4C/	.	[4ee\	.	16cc\LL	.	.	.	.	.	[<4ee\	.	16cc\LL	.
.	.	.	.	16dd\	.	.	.	.	.	.	.	16dd\	.
.	.	.	.	16ee\	.	.	.	.	.	.	.	16ee\	.
.	.	.	.	16ff\JJ	.	.	.	.	.	.	.	16ff\JJ	.
4C/	.	8.ee\L]	.	8.ggT\L	.	4c/	.	8gg\L	.	8.ee\L]	.	8.ggT\L	.
.	.	.	.	.	.	.	.	16ff\L	.	.	.	.	.
.	.	32dd\LL	.	32ff\LL	.	.	.	16ee\JJ	.	32dd\LL	.	32ff\LL	.
.	.	32cc\JJJ	.	32ee\JJJ	.	.	.	.	.	32cc\JJJ	.	32ee\JJJ	.
=10	=10	=10	=10	=10	=10	=10	=10	=10	=10	=10	=10	=10	=10
4GG/	.	4b/	.	4dd\	.	2.g/	.	2.dd\	.	4b/	.	4dd\	.
4D\	.	4a/	.	4cc\	.	.	.	.	.	4a/	.	4cc\	.
4G\	.	4g/	.	4b\	.	.	.	.	.	4g/	.	4b\	.
!	!	!LO:LB:g=original	!	!	!	!	!	!	!	!	!	!	!
!	!	!LO:SIC:custos d po kresce taktowej:v	!	!	!	!	!	!	!	!	!	!	!
=11	=11	=11	=11	=11	=11	=11	=11	=11	=11	=11	=11	=11	=11
*	*	*	*	*	*	*	*	*	*	*2\right	*	*	*
4D\	.	(16d/LL	.	(32a\LLL	.	2.dd\	.	2.ff#X\	.	[<2.dd\	.	2.dd\	.
.	.	.	.	32b\JJ	.	.	.	.	.	.	.	.	.
.	.	16f#X/)	.	8.cc\J)	.	.	.	.	.	.	.	.	.
.	.	16a/	.	.	.	.	.	.	.	.	.	.	.
.	.	16f#/JJ|	.	.	.	.	.	.	.	.	.	.	.
!	!	!	!	!LO:TX:t=P:problem=mixed beam	!	!	!	!	!	!	!	!	!
8r	.	(16d/LL	.	8d/L	.	.	.	.	.	.	.	.	.
.	.	16f#/)	.	.	.	.	.	.	.	.	.	.	.
8D\L	.	16a/	.	8aa\	.	.	.	.	.	.	.	.	.
.	.	16f#/JJ|	.	.	.	.	.	.	.	.	.	.	.
8F#X\	.	(16d/LL	.	8d/	.	.	.	.	.	.	.	.	.
.	.	16f#/)	.	.	.	.	.	.	.	.	.	.	.
8D\J	.	16a/	.	8cc\J	.	.	.	.	.	.	.	.	.
.	.	16f#/JJ|	.	.	.	.	.	.	.	.	.	.	.
=12	=12	=12	=12	=12	=12	=12	=12	=12	=12	=12	=12	=12	=12
4G\	.	(16d/LL	.	(32b\LLL	.	2.g/	.	2.gg\	.	2.dd\]	.	2.dd\	.
.	.	.	.	32cc\JJ	.	.	.	.	.	.	.	.	.
.	.	16g/)	.	8.dd\J)	.	.	.	.	.	.	.	.	.
.	.	16b/	.	.	.	.	.	.	.	.	.	.	.
.	.	16g/JJ|	.	.	.	.	.	.	.	.	.	.	.
!	!	!	!	!LO:TX:t=P:problem=mixed beam	!	!	!	!	!	!	!	!	!
8r	.	(16d/LL	.	8d/L	.	.	.	.	.	.	.	.	.
.	.	16g/)	.	.	.	.	.	.	.	.	.	.	.
8GG/L	.	16b/	.	8bb\	.	.	.	.	.	.	.	.	.
.	.	16g/JJ|	.	.	.	.	.	.	.	.	.	.	.
8BB/	.	(16d/LL	.	8d/	.	.	.	.	.	.	.	.	.
.	.	16g/)	.	.	.	.	.	.	.	.	.	.	.
8GG/J	.	16b/	.	8gg\J	.	.	.	.	.	.	.	.	.
.	.	16g/JJ|	.	.	.	.	.	.	.	.	.	.	.
=13	=13	=13	=13	=13	=13	=13	=13	=13	=13	=13	=13	=13	=13
!	!LO:DY:a:t=P&colon;	!	!LO:DY:a	!	!LO:DY:a	!	!	!	!	!	!	!	!LO:DY:a
4D\	p	(16d/LL	p	(32a\LLL	p	2.dd\	p	2.ff#X\	p	[<2.dd\	p	2.dd\	p
.	.	.	.	32b\JJ	.	.	.	.	.	.	.	.	.
.	.	16f#X/)	.	8.cc\J)	.	.	.	.	.	.	.	.	.
.	.	16a/	.	.	.	.	.	.	.	.	.	.	.
.	.	16f#/JJ|	.	.	.	.	.	.	.	.	.	.	.
!	!	!	!	!LO:TX:t=P:problem=mixed beam	!	!	!	!	!	!	!	!	!
8r	.	(16d/LL	.	8d/L	.	.	.	.	.	.	.	.	.
.	.	16f#/)	.	.	.	.	.	.	.	.	.	.	.
8D\L	.	16a/	.	8aa\	.	.	.	.	.	.	.	.	.
.	.	16f#/JJ|	.	.	.	.	.	.	.	.	.	.	.
8F#X\	.	(16d/LL	.	8d/	.	.	.	.	.	.	.	.	.
.	.	16f#/)	.	.	.	.	.	.	.	.	.	.	.
8D\J	.	16a/	.	8cc\J	.	.	.	.	.	.	.	.	.
.	.	16f#/JJ|	.	.	.	.	.	.	.	.	.	.	.
!	!	!	!	!LO:LB:g=original	!	!	!	!	!	!	!	!	!
=14	=14	=14	=14	=14	=14	=14	=14	=14	=14	=14	=14	=14	=14
4G\	.	(16d/LL	.	(32b\LLL	.	2.g/	.	2.gg\	.	2.dd\]	.	2.dd\	.
.	.	.	.	32cc\JJ	.	.	.	.	.	.	.	.	.
.	.	16g/)	.	8.dd\J)	.	.	.	.	.	.	.	.	.
.	.	16b/	.	.	.	.	.	.	.	.	.	.	.
.	.	16g/JJ	.	.	.	.	.	.	.	.	.	.	.
!	!	!	!	!LO:TX:t=P:problem=mixed beam	!	!	!	!	!	!	!	!	!
8r	.	(16d/LL	.	8d/L	.	.	.	.	.	.	.	.	.
.	.	16g/)	.	.	.	.	.	.	.	.	.	.	.
8GG/L	.	16b/	.	8bb\	.	.	.	.	.	.	.	.	.
.	.	16g/JJ	.	.	.	.	.	.	.	.	.	.	.
8BB/	.	(16d/LL	.	8d/	.	.	.	.	.	.	.	.	.
.	.	16g/)	.	.	.	.	.	.	.	.	.	.	.
8GG/J	.	16b/	.	8gg\J	.	.	.	.	.	.	.	.	.
.	.	16g/JJ|	.	.	.	.	.	.	.	.	.	.	.
!	!	!LO:LB:g=original	!	!	!	!	!	!	!	!	!	!LO:LB:g=original	!
=15	=15	=15	=15	=15	=15	=15	=15	=15	=15	=15	=15	=15	=15
!	!LO:DY:t=for	!	!LO:DY:a	!	!LO:DY:a	!	!LO:DY:a	!	!	!	!	!	!
4G\	f	4b 4d 4G/	f	4b 4d 4G/	f	2g/	f	2gg\	f	2ddT\	f	2ddT\	f
4BB/	.	4.g/	.	8.ddT\L	.	.	.	.	.	.	.	.	.
.	.	.	.	32cc\LL	.	.	.	.	.	.	.	.	.
.	.	.	.	32dd\JJJ	.	.	.	.	.	.	.	.	.
!	!	!	!	!LO:TX:t=P:problem=mixed beam	!	!	!	!	!	!	!	!	!
4C/	.	.	.	8ee\L	.	4cc\	.	4ee\	.	4ee\	.	8ee\L	.
!	!	!	!	!	!	!	!	!	!	!	!	!LO:TX:t=P:problem=mixed beam	!
.	.	8e/	.	8g/J	.	.	.	.	.	.	.	8g/J	.
=16	=16	=16	=16	=16	=16	=16	=16	=16	=16	=16	=16	=16	=16
8D/L	.	8d/L	.	16f#X/LL	.	8dd\L	.	8ff#X\L	.	8dd\L	.	(16f#X/LL	.
.	.	.	.	16g/	.	.	.	.	.	.	.	16g/	.
8D/J	.	8c/J	.	16a/	.	8dd\J	.	8ff#\J	.	8cc\J	.	16a/)	.
.	.	.	.	16f#/JJ	.	.	.	.	.	.	.	16f#/JJ	.
!LO:TX:t=P:problem=mixed beam	!	!LO:TX:t=P:problem=mixed beam	!	!	!	!	!	!	!	!	!	!	!
8GG/L	.	8B/L	.	2g/	.	2g/	.	2gg\	.	2b\	.	2g/	.
8G\J	.	8b\J	.	.	.	.	.	.	.	.	.	.	.
!LO:LB:g=original	!	!	!	!	!	!	!	!	!	!	!	!	!
16G\LL	.	16b/LL	.	.	.	.	.	.	.	.	.	.	.
16F\	.	16a/	.	.	.	.	.	.	.	.	.	.	.
16E\	.	16g/	.	.	.	.	.	.	.	.	.	.	.
16D\JJ	.	16f/JJ	.	.	.	.	.	.	.	.	.	.	.
!	!	!	!	!	!	!LO:LB:g=original	!	!	!	!LO:LB:g=original	!	!	!
=17	=17	=17	=17	=17	=17	=17	=17	=17	=17	=17	=17	=17	=17
!	!LO:DY:a:t=P&colon;	!	!	!	!	!	!	!	!	!	!LO:DY:a	!	!LO:DY:a
4C/	p	4e/	.	2.r	.	2.r	.	2.r	.	(16e/LL	p	(16g/LL	p
.	.	.	.	.	.	.	.	.	.	16d/	.	16fn/	.
.	.	.	.	.	.	.	.	.	.	16c/)	.	16e/	.
.	.	.	.	.	.	.	.	.	.	16d/JJ	.	16f/JJ)	.
4r	.	4r	.	.	.	.	.	.	.	(16e/LL	.	(16g/LL	.
.	.	.	.	.	.	.	.	.	.	16d/	.	16f/	.
.	.	.	.	.	.	.	.	.	.	16c/)	.	16e/	.
.	.	.	.	.	.	.	.	.	.	16d/JJ	.	16f/JJ)	.
4C/	.	4r	.	.	.	.	.	.	.	8e/L	.	8g/L	.
.	.	.	.	.	.	.	.	.	.	8g/J	.	8b-X/J	.
=18	=18	=18	=18	=18	=18	=18	=18	=18	=18	=18	=18	=18	=18
8FF/	.	8r	.	8r	.	8r	.	8r	.	8f/L	.	8a/	.
!LO:TX:t=P:problem=mixed beam	!LO:DY:a:t=for	!	!	!	!	!	!	!	!	!	!LO:DY:a	!	!
8F\L	f	8a/	.	8ff\	.	8cc\L	.	8ffn\	.	8a/J	f	8ff\	f
.	.	.	.	8qqaa/	.	.	.	.	.	.	.	8qqaa/	.
8BB-X/	.	8b-X/L	.	8gg\L	.	8dd\	.	8gg\L	.	8b-X/L	.	8gg\L	.
8C/J	.	16a/L	.	16ff\L	.	8cc\J	.	16ff\L	.	16a/L	.	16ff\L	.
.	.	16g/JJ	.	16ee\JJ	.	.	.	16ee\JJ	.	16g/JJ	.	16ee\JJ	.
4FF/	.	4a/	.	4ff\	.	4cc\	.	4ff\	.	4a/	.	4ff\	.
!	!	!	!	!	!	!	!	!	!	!	!	!LO:LB:g=original	!
=19	=19	=19	=19	=19	=19	=19	=19	=19	=19	=19	=19	=19	=19
!	!LO:DY:a:t=P&colon;	!	!	!	!	!	!	!	!	!	!LO:DY:a	!	!
4D\	p	2.r	.	2.r	.	2.r	.	2.r	.	(16f#X/LL	p	(16a/LL	p
.	.	.	.	.	.	.	.	.	.	16e/	.	16g/	.
.	.	.	.	.	.	.	.	.	.	16d/)	.	16f#X/	.
.	.	.	.	.	.	.	.	.	.	16e/JJ	.	16g/JJ)	.
4r	.	.	.	.	.	.	.	.	.	16f#/LL	.	(16a/LL	.
.	.	.	.	.	.	.	.	.	.	16e/	.	16g/	.
.	.	.	.	.	.	.	.	.	.	16d/	.	16f#/	.
.	.	.	.	.	.	.	.	.	.	16e/JJ	.	16g/JJ)	.
4D\	.	.	.	.	.	.	.	.	.	8f#/L	.	8a/L	.
.	.	.	.	.	.	.	.	.	.	8a/J	.	8cc/J	.
!	!	!	!	!LO:LB:g=original	!	!	!	!	!	!	!	!	!
=20	=20	=20	=20	=20	=20	=20	=20	=20	=20	=20	=20	=20	=20
8GG/	.	8r	.	8r	.	8r	.	8r	.	8g/	.	8b\L	.
!LO:TX:t=P:problem=mixed beam	!LO:DY:a:t=for	!	!	!	!	!	!	!	!	!	!LO:DY:a	!	!
8G\L	f	8b/	.	8gg\	.	8g\L	.	8gg\	.	8b\	f	8gg\J	f
.	.	.	.	8qqbb/	.	.	.	.	.	.	.	8qqbb/	.
8C/	.	8cc\L	.	8aa\L	.	8cc\	.	8aa\L	.	8cc\L	.	8aa\L	.
8D/J	.	16b\L	.	16gg\L	.	8dd\J	.	16gg\L	.	16b\L	.	16gg\L	.
.	.	16a\JJ	.	16ff#X\JJ	.	.	.	16ff#X\JJ	.	16a\JJ	.	16ff#X\JJ	.
4GG/	.	4b/	.	4gg\	.	4g/	.	4gg\	.	4b\	.	4gg\	.
!	!	!	!	!	!	!	!	!LO:LB:g=original	!	!LO:LB:g=original	!	!	!
=21	=21	=21	=21	=21	=21	=21	=21	=21	=21	=21	=21	=21	=21
4GG/	.	8d/L	.	8f/L	.	4g/	.	4ffn\	.	2.r	.	2.r	.
.	.	16B/L	.	16d/L	.	.	.	.	.	.	.	.	.
.	.	16c/JJ	.	16e/JJ	.	.	.	.	.	.	.	.	.
8r	.	8d/L	.	8f/L	.	8r	.	8r	.	.	.	.	.
8D/L	.	8d/	.	8d/	.	8dd\L	.	8ff\L	.	.	.	.	.
!	!	!	!	!	!	!LO:TX:t=P:problem=mixed beam	!	!	!	!	!	!	!
8BB/	.	8B/	.	8B/	.	8g/	.	8dd\	.	.	.	.	.
8GG/J	.	8G/J	.	8G/J	.	8g/J	.	8dd\J	.	.	.	.	.
!	!	!LO:LB:g=original	!	!	!	!	!	!	!	!	!	!	!
=22	=22	=22	=22	=22	=22	=22	=22	=22	=22	=22	=22	=22	=22
4C/	.	(4e/	.	(4g/	.	4ee\	.	4gg\	.	(4e/	.	(4g/	.
8r	.	4d/)	.	4f/)	.	4dd\	.	4ff\	.	4d/)	.	4fT</	.
8D\L	.	.	.	.	.	.	.	.	.	.	.	.	.
8E\	.	4c/	.	4e/	.	4cc\	.	4ee\	.	4c/	.	4e/)	.
8C\J	.	.	.	.	.	.	.	.	.	.	.	.	.
=23	=23	=23	=23	=23	=23	=23	=23	=23	=23	=23	=23	=23	=23
!	!LO:DY:a:t=P&colon;	!	!LO:DY:a	!	!LO:DY:a	!LO:TX:b:t=2	!	!LO:TX:b:t=2	!	!	!	!	!
!	!	!	!	!	!	!LO:N:vis=0	!	!LO:N:vis=0	!	!	!	!	!
4GG/	p	8d/L	p	8f/L	p	1.r	.	1.r	.	2.r	.	2.r	.
.	.	16B/L	.	16d/L	.	.	.	.	.	.	.	.	.
.	.	16c/JJ	.	16e/JJ	.	.	.	.	.	.	.	.	.
8r	.	8d/L	.	8f/L	.	.	.	.	.	.	.	.	.
8D/L	.	8d/	.	8d/	.	.	.	.	.	.	.	.	.
8BB/	.	8B/	.	8B/	.	.	.	.	.	.	.	.	.
8GG/J	.	8G/J	.	8G/J	.	.	.	.	.	.	.	.	.
!	!	!	!	!	!	!	!	!	!	!	!	!LO:LB:g=original	!
=24	=24	=24	=24	=24	=24	=24	=24	=24	=24	=24	=24	=24	=24
!	!	!	!	!	!	!	!	!	!	!	!LO:DY:a	!	!
4C/	.	(8e/L	.	(8g/L	.	.	.	.	.	(8e/L	p	(8g/L	p
.	.	8d/)	.	8f/)	.	.	.	.	.	8d/)	.	8f/)	.
8r	.	(8d/	.	(8f/	.	.	.	.	.	(8d/	.	(8f/	.
!LO:LB:g=original	!	!	!	!	!	!	!	!	!	!	!	!	!
8D\L	.	8c/J)	.	8e/J)	.	.	.	.	.	8c/J)	.	8e/J)	.
8E\	.	4c/	.	4e/	.	.	.	.	.	4c/	.	4e/	.
8C\J	.	.	.	.	.	.	.	.	.	.	.	.	.
!	!	!	!	!LO:LB:g=original	!	!	!	!	!	!	!	!	!
=25	=25	=25	=25	=25	=25	=25	=25	=25	=25	=25	=25	=25	=25
!	!LO:DY:t=for	!	!LO:DY:a	!	!	!	!	!	!	!	!LO:DY:a	!	!
2F\	f	4c/	f	16aa\LL	f	2ff\	.	2aa\	.	4c/	f	2aa\	f
.	.	.	.	16gg\	.	.	.	.	.	.	.	.	.
.	.	.	.	16ff\	.	.	.	.	.	.	.	.	.
.	.	.	.	16ee\JJ	.	.	.	.	.	.	.	.	.
.	.	4d/	.	16dd\LL	.	.	.	.	.	4d/	.	.	.
.	.	.	.	16cc\	.	.	.	.	.	.	.	.	.
.	.	.	.	16b\	.	.	.	.	.	.	.	.	.
.	.	.	.	16a\JJ	.	.	.	.	.	.	.	.	.
!	!	!	!	!LO:TX:t=P:problem=mixed beam	!	!	!	!	!	!	!	!	!
4G\	.	8b\L	.	8g/L	.	8ee\L	.	8gg\L	.	8b\L	.	8gg\L	.
.	.	8dd\J	.	8ff\J	.	8dd\J	.	8ff\J	.	8dd\J	.	8ff\J	.
=26	=26	=26	=26	=26	=26	=26	=26	=26	=26	=26	=26	=26	=26
8c\L	.	(16g/LL	.	16ee\LL	.	8cc\L	.	8ee\L	.	(16g/LL	.	16ee\LL	.
.	.	16f/	.	(16dd\	.	.	.	.	.	16f/	.	(16dd\	.
8G\J	.	16e/)	.	16cc\	.	8g\J	.	8dd\J	.	16e/)	.	16cc\	.
.	.	16d/JJ	.	16b\JJ)	.	.	.	.	.	16d/JJ	.	16b\JJ)	.
.	.	8qqd\	.	8qqb/	.	.	.	.	.	8qqd\	.	8qqb/	.
*	*	*	*	*2\right	*	*	*	*	*	*	*	*	*
!LO:TX:b:i:t=Il fine	!	!LO:TX:b:i:t=Il fine	!	!LO:TX:b:i:t=Il fine	!	!LO:TX:b:i:t=Il fine	!	!LO:TX:b:i:t=Il fine	!	!LO:TX:b:i:t=Il fine	!	!LO:TX:b:i:t=Il fine	!
2C\	.	2e/	.	2cc\	.	2e/	.	2cc\	.	2e/	.	2cc\	.
=:|!	=:|!	=:|!	=:|!	=:|!	=:|!	=:|!	=:|!	=:|!	=:|!	=:|!	=:|!	=:|!	=:|!
*-	*-	*-	*-	*-	*-	*-	*-	*-	*-	*-	*-	*-	*-
!!!system-decoration: [g1][g2][g3]s7
!!!RDF**kern: > = above
!!!RDF**kern: < = below
!!!RDF**dynam: p = "p:o"
!!!RDF**dynam: f = "for:"
!!!RDF**dynam: ff = "fortmo"
!!!AIN: 2 cor 1 empty 2 oboe 2 violn
!!!ENC: Marta Lawrence
!!!END: 2020-10-07
!!!ENC: Mateusz Solarz
!!!END: 2020-06-03
!!!RDF**kern: | = vertical stroke
